!!!OTL-incipit: ES WAREN ZWEI KOENIGSKINDER
!!!ARE: Europa, Mitteleuropa, Deutschland
!!!SCT: Z0024
!!!TXL: @@DE
!!!YEM: Copyright 1995, estate of Helmut Schaffrath.
**kern	**text
*ICvox	*
*M2/4	*
*k[f#]	*
*G:	*
{8d	Es
=1	=1
8g	wa-
16g	-ren
16g	ʒwei
8.b/	Kö-
16g	-nigs-
=2	=2
8gL	-kin-
8f#J	.
8f#;}	-der,
{8d	die
=3	=3
8a	hat-
16a	-ten
16a	ein-
8cc	-an-
16a	-der
16a	ſo
=4	=4
4g	lieb,
8r}	.
{16gL	ſie
16bJ	.
=5	=5
8dd	konn-
16dd	-ten
16dd	bei-
8dd	-ſam-
16cc	-men
16cc	nicht
=6	=6
4b/	kom-
16ddL	-men,
16ccJ}	.
{16bL	das
16aJ	.
=7	=7
8g	Waſ-
16g	-ſer
16g	war
16bL	viel
16aJ	.
16gL	ʒu
16aJ	.
=8	=8
4b/}	tief,
{4a	das
=9	=9
8b/	Waſ-
16dd	-ſer
16dd	war
16ddL	viel
16ccJ	.
16bL	ʒu
16aJ	.
=10	=10
4g;	tief.
8r}	.
==:|;;	==:|;;
!!!AGN: Sagen - Lied, Romanze
!!!ONB: ESAC (Essen Associative Code) Database: ZUCCAL
!!!AMT: simple duple
!!!AIN: vox
!!!EED: Helmut Schaffrath
!!!EEV: 1.0
!!!GTL: I. Ernste Romanzen und Sagen.
!!!URL-scan: https://www.digitale-sammlungen.de/de/view/bsb11160571?page=53
!!!ENC: Anna Maria Matuszewska
!!!EEV: 2025/01/23
*-	*-
